svg/Pictogram/pictograms-nps-food_service.svg

<?xml version="1.0" encoding="UTF-8" standalone="no"?>
<!-- Generator: Adobe Illustrator 13.0.2, SVG Export Plug-In . SVG Version: 6.00 Build 14948)  -->
<svg
   xmlns:dc="http://purl.org/dc/elements/1.1/"
   xmlns:cc="http://creativecommons.org/ns#"
   xmlns:rdf="http://www.w3.org/1999/02/22-rdf-syntax-ns#"
   xmlns:svg="http://www.w3.org/2000/svg"
   xmlns="http://www.w3.org/2000/svg"
   xmlns:sodipodi="http://sodipodi.sourceforge.net/DTD/sodipodi-0.dtd"
   xmlns:inkscape="http://www.inkscape.org/namespaces/inkscape"
   version="1.1"
   id="Layer_1"
   x="0px"
   y="0px"
   width="123.547px"
   height="123.539px"
   viewBox="-0.258 -0.548 123.547 123.539"
   style="enable-background:new -0.258 -0.548 123.547 123.539;"
   xml:space="preserve"
   sodipodi:version="0.32"
   inkscape:version="0.46"
   sodipodi:docname="pictograms-nps-food_service-2.svg"
   inkscape:output_extension="org.inkscape.output.svg.inkscape"><metadata
   id="metadata17898"><rdf:RDF><cc:Work
       rdf:about=""><dc:format>image/svg+xml</dc:format><dc:type
         rdf:resource="http://purl.org/dc/dcmitype/StillImage" /></cc:Work></rdf:RDF></metadata><defs
   id="defs17896"><inkscape:perspective
     sodipodi:type="inkscape:persp3d"
     inkscape:vp_x="0 : 61.769501 : 1"
     inkscape:vp_y="0 : 1000 : 0"
     inkscape:vp_z="123.547 : 61.769501 : 1"
     inkscape:persp3d-origin="61.773499 : 41.179667 : 1"
     id="perspective17900" /></defs><sodipodi:namedview
   inkscape:window-height="700"
   inkscape:window-width="727"
   inkscape:pageshadow="2"
   inkscape:pageopacity="0.0"
   guidetolerance="10.0"
   gridtolerance="10.0"
   objecttolerance="10.0"
   borderopacity="1.0"
   bordercolor="#666666"
   pagecolor="#ffffff"
   id="base"
   showgrid="false"
   inkscape:zoom="0.93897473"
   inkscape:cx="168.61768"
   inkscape:cy="47.747459"
   inkscape:window-x="0"
   inkscape:window-y="37"
   inkscape:current-layer="Layer_1" />

<path
   d="M 14.559768,1.5003566 C 7.7719506,1.5003566 2.2513596,7.0209477 2.2513596,13.796218 L 2.2513596,108.18578 C 2.2513596,114.96105 7.7719506,120.46909 14.559768,120.46909 L 108.92423,120.46909 C 115.71205,120.46909 121.23264,114.96105 121.23264,108.18578 L 121.23264,13.796218 C 121.23264,7.0209477 115.71205,1.5003566 108.92423,1.5003566 L 14.559768,1.5003566 z"
   style="fill:#ffffff;fill-opacity:1;fill-rule:nonzero;stroke:none"
   id="path10141" /><path
   d="M 108.92423,122.991 C 117.11729,122.991 123.742,116.35374 123.742,108.18578 L 123.742,13.796218 C 123.742,5.6157063 117.11729,-1.0090029 108.92423,-1.0090029 L 14.559768,-1.0090029 C 6.3792561,-1.0090029 -0.258,5.6157063 -0.258,13.796218 L -0.258,108.18578 C -0.258,116.35374 6.3792561,122.991 14.559768,122.991 L 108.92423,122.991 z"
   style="fill:#000000;fill-opacity:1;fill-rule:nonzero;stroke:none"
   id="path10143" /><path
   d="M 56.353152,42.603666 C 56.353152,45.890927 53.379561,49.36639 49.515147,49.36639 L 49.515147,104.60994 C 49.515147,112.45169 38.825275,112.45169 38.825275,104.60994 L 38.825275,49.36639 C 35.061236,49.36639 31.786522,46.480627 31.786522,42.114341 L 31.786522,11.725997 C 31.786522,9.0786225 35.613295,8.9907949 35.613295,11.826371 L 35.613295,34.297686 L 38.812728,34.297686 L 42.501487,34.297686 L 42.212911,34.297686 L 42.212911,11.663263 C 42.212911,9.1288097 45.788748,9.0409821 45.788748,11.75109 L 45.788748,34.297686 L 52.626753,34.297686 L 52.626753,11.663263 C 52.626753,9.1539033 56.353152,9.0660757 56.353152,11.75109 L 56.353152,42.603666 z"
   style="fill:#ffffff;fill-opacity:1;fill-rule:nonzero;stroke:none"
   id="path10145" /><path
   d="M 89.865649,18.814938 L 89.865649,104.58485 C 89.865649,112.25094 79.150683,112.12547 79.150683,104.58485 L 79.150683,70.570479 L 73.44189,70.570479 L 73.44189,18.814938 C 73.44189,6.7825585 89.865649,6.7825585 89.865649,18.814938"
   style="fill:#ffffff;fill-opacity:1;fill-rule:nonzero;stroke:none"
   id="path10147" /></svg>

<svg xmlns="http://www.w3.org/2000/svg" width="123.55" height="123.54" viewBox="-0.258 -0.548 123.547 123.539" enable-background="new -0.258 -0.548 123.547 123.539"><path d="m14.56 1.5c-6.788 0-12.308 5.521-12.308 12.296v94.39c0 6.775 5.521 12.283 12.308 12.283h94.36c6.788 0 12.308-5.508 12.308-12.283v-94.39c0-6.775-5.521-12.296-12.308-12.296h-94.36" fill="#fff"/><path d="m108.92 122.99c8.193 0 14.818-6.637 14.818-14.805v-94.39c0-8.181-6.625-14.805-14.818-14.805h-94.36c-8.181 0-14.818 6.625-14.818 14.805v94.39c0 8.168 6.637 14.805 14.818 14.805h94.36"/><g fill="#fff"><path d="m56.35 42.604c0 3.287-2.974 6.763-6.838 6.763v55.24c0 7.842-10.69 7.842-10.69 0v-55.24c-3.764 0-7.04-2.886-7.04-7.252v-30.388c0-2.647 3.827-2.735 3.827.1v22.471h3.199 3.689-.289v-22.634c0-2.534 3.576-2.622 3.576.088v22.547h6.838v-22.634c0-2.509 3.726-2.597 3.726.088v30.853"/><path d="m89.87 18.815v85.77c0 7.666-10.715 7.541-10.715 0v-34.01h-5.709v-51.756c0-12.03 16.424-12.03 16.424 0"/></g></svg>
